!!!!SEGMENT: pl-cz--i-155--005-002_anonim--partita-es-menuetto.krn
!!!cenid: 18xx:2509
!!!COM: Anonim
!!!COM-rism: pe30004985
!!!CDT:
!!!CNT:
!!!OTL: Partita Es - Menuetto
!!!PDT:
!!!AGN: Secular; Partita
!!!SMS-siglum: PL-CZ
!!!SMS-shelfmark: I-155
!!!NIFC-rismID: 1001012513
!!!URL-scan: http://repozytorium.nifc.pl/skany/pl-cz-nut--i-155
!!!ONB-nifc: UWAGA: Parthia 5 (005), części 1. Moderato, 2. Menuetto, 3. Andante, 4. Finale. Skan: 11, 23, 35, 45, 53
!!!SMS-variant:
!!!SMS-altvar:
**kern	**kern	**kern	**kern	**kern
*part5	*part4	*part3	*part2	*part1
*staff5	*staff4	*staff3	*staff2	*staff1
*I"Corno Secondo	*I"Corno Primo.	*I"Fagotto	*I"Clarinetto Secondo	*I"Clarinetto Primo
*I'cor 2	*I'cor 1	*I'fag	*I'cl 2	*I'cl 1
*clefG2	*clefG2	*clefF4	*clefG2	*clefG2
*ITrd4c7	*ITrd4c7	*	*	*
*k[b-]	*k[b-]	*k[b-]	*k[b-]	*k[b-]
*M3/4	*M3/4	*M3/4	*M3/4	*M3/4
*all\right	*all\right	*all\right	*all\right	*all\right
*2\right	*2\right	*2\right	*2\right	*2\right
*>[A,A,B,B,C,C,D,D]	*>[A,A,B,B,C,C,D,D]	*>[A,A,B,B,C,C,D,D]	*>[A,A,B,B,C,C,D,D]	*>[A,A,B,B,C,C,D,D]
*>A	*>A	*>A	*>A	*>A
!LO:TX:a:i:t=Men&colon;	!LO:TX:a:i:t=Men&colon;	!LO:TX:a:i:t=Men&colon;	!LO:TX:a:i:t=Men&colon;	!LO:TX:a:i:t=Men&colon;
4r	4r	4r	4r	4ff\
=1	=1	=1	=1	=1
4r	4r	4r	2a/	2ff\
4A/	4f\	4A\	.	.
4A/	4f\	4F\	4a/	8aa\L
.	.	.	.	16gg\L
.	.	.	.	16ff\JJ
=2	=2	=2	=2	=2
4c/	4g\	4c\	4b-\	4ee\
4c/	4g\	4C/	4b-\	4r
4r	4r	4r	4r	8cc\L
.	.	.	.	8ee\J
=3	=3	=3	=3	=3
4r	4r	4r	2b-\	2gg\
4c/	4g\	4E\	.	.
4c/	4g\	4C/	4b-\	8bb-\L
.	.	.	.	16gg\L
.	.	.	.	16ee\JJ
=4	=4	=4	=4	=4
4A/	4f\	4F\	4a/	4ff\
4A/	4f\	4FF/	4a/	4r
4r	4r	4r	8a/L	8ccc\L
.	.	.	8g/J	8bb-\J
=5	=5	=5	=5	=5
!	!	!	!	!LO:TX:a:t=10
2.r	2.r	2.r	8f/L	4aa\
.	.	.	8c/	.
.	.	.	8f/	4aa\
.	.	.	8c/	.
.	.	.	8g/	4bb-\
.	.	.	8c/J	.
!	!	!	!	!LO:LB:g=original
=6	=6	=6	=6	=6
*	*	*	*tremolo	*
2c/	2g\	8C\L	8e/L	2gg\
.	.	8E\	8c/	.
.	.	8G\	8e/	.
.	.	8c\J	8c/	.
4c/	4g\	4C/	8e/	8ee\L
.	.	.	8c/J	8gg\J
*	*	*	*Xtremolo	*
!	!LO:LB:g=original	!	!LO:LB:g=original	!
=7	=7	=7	=7	=7
4f\	4a\	8F\L	4a/	4ff\
.	.	8A\J	.	.
4r	4r	4c\	4a/	4ff\
4c/	4g\	4C/	8b-/L	8gg\L
.	.	.	8g/J	8ee\J
!	!	!LO:LB:g=original	!	!
=8	=8	=8	=8	=8
2A/	4f\	4F\	4a/	4ff\
!	!	!	!	!LO:TX:b:t=8
.	4r	4FF/	4r	4r
!LO:LB:g=original	!	!	!	!
=:||:	=:||:	=:||:	=:||:	=:||:
*>B	*>B	*>B	*>B	*>B
8f\L	8a\L	4r	8f/L	8a/L
8g\J	8b-\J	.	8g/J	8b-/J
=9	=9	=9	=9	=9
4a\	4cc\	4FF/	4a/	4cc\
4a\	4cc\	4F\	4a/	4cc\
4g\	4b-\	4C/	4g/	4b-\
=10	=10	=10	=10	=10
4f\	4a\	4F\	4f/	4a/
4f\	4a\	4FF/	4f/	4a/
8c\L	8g\L	4r	8e/L	8g/L
8f\J	8a\J	.	8f/J	8a/J
=11	=11	=11	=11	=11
4g\	4b-\	4C/	4g/	4b-X/
4g\	4b-\	4E\	4g/	4b-/
4f\	4a\	4F\	4f/	4a/
=12	=12	=12	=12	=12
4f\	4a\	4c\	8f/L	4a/
.	.	.	8e/J	.
4c/	4g\	4C/	4e/	4g/
4r	4r	4r	4r	8ccc\L
.	.	.	.	8aa\J
!	!	!	!	!LO:LB:g=original
=13	=13	=13	=13	=13
*	*	*	*tremolo	*
2.r	2.r	2.r	8f/L	4aa\
.	.	.	8c/	.
.	.	.	8f/	4aa\
.	.	.	8c/J	.
*	*	*	*Xtremolo	*
.	.	.	8g/L	4bb-\
.	.	.	8c/J	.
!	!	!	!LO:LB:g=original	!
=14	=14	=14	=14	=14
*	*	*	*tremolo	*
2c/	2g\	8C\L	8e/L	2gg\
.	.	8E\	8c/	.
.	.	8G\	8e/	.
.	.	8c\J	8c/J	.
*	*	*	*Xtremolo	*
4c/	4g\	4C/	8g/L	8ee\L
.	.	.	8c/J	8gg\J
=15	=15	=15	=15	=15
4f\	4a\	8F\L	4a/	4ff\
.	.	8A\J	.	.
4r	4r	4c\	4a/	4ff\
4c/	4g\	4C/	8b-/L	8gg\L
.	.	.	8g/J	8ee\J
=16	=16	=16	=16	=16
!	!	!	!	!LO:TX:b:t=8
2A/	4f\	4F\	4a/	2ff\
.	4r	4FF/	4r	.
!	!LO:LB:g=original	!	!	!
=:||:	=:||:;;	=:||:;;	=:||:	=:||:
*>C	*>C	*>C	*>C	*>C
!LO:TX:a:i:t=Trio	!LO:TX:a:i:t=Trio	!LO:TX:a:i:t=Trio	!LO:TX:a:i:t=Trio	!LO:TX:a:i:t=Trio
4r	4r	4r	8ff\L	8aa\L
.	.	.	8gg\J	8bb-\J
!LO:PB:g=original	!	!	!	!
=17	=17	=17	=17	=17
2.A/	2.f\	2F\	8aa\L	8ccc\L
.	.	.	8ff\	8aa\
.	.	.	8cc\	8ff\
.	.	.	8ff\	8aa\
.	.	8FF/L	8aa\	8ccc\
.	.	8AA/J	8aa\J	8ccc\J
=18	=18	=18	=18	=18
2.c/	2.g\	2C/	8gg\L	8bb-\L
.	.	.	8ee\	8gg\
.	.	.	8cc\	8ee\
.	.	.	8ee\	8gg\
.	.	4E\	8gg\	8bb-\
.	.	.	8gg\J	8bb-\J
!	!	!	!	!LO:LB:g=original
=19	=19	=19	=19	=19
4f\	4a\	4F\	8ff\L	8aa\L
.	.	.	8cc\	8ff\
4f\	4a\	4FF/	8a\	8cc\
.	.	.	8f\J	8a\
4f\	4a\	4F\	8c/L	8f\
.	.	.	8f/J	8a\J
!	!	!	!LO:LB:g=original	!
=20	=20	=20	=20	=20
4f\	4a\	4c\	4f/	4a/
4c/	4g\	4C/	4e/	4g/
4r	4r	4r	8ff\L	8aa\L
!	!LO:TX:t=P:problem:znak segno na kresce taktowej	!	!	!
!	!LO:TX:t=[segno]	!	!	!
.	.	.	8gg\J	8bb-\J
=21	=21	=21	=21	=21
2.A/	2.f\	2F\	8aa\L	8ccc\L
.	.	.	8ff\	8aa\
.	.	.	8cc\	8ff\
.	.	.	8ff\	8aa\
.	.	8FF/L	8aa\	8ccc\
.	.	8AA/J	8aa\J	8ccc\J
=22	=22	=22	=22	=22
2.c/	2.g\	2C/	8gg\L	8bb-\L
.	.	.	8ee\	8gg\
.	.	.	8cc\	8ee\
.	.	.	8ee\	8gg\
.	.	4E\	8gg\	8bb-\
.	.	.	8gg\J	8bb-\J
=23	=23	=23	=23	=23
2f\	2a\	8F\L	4ff\	8aa\L
.	.	8A\J	.	8ccc\J
.	.	4c\	4a/	4ff\
4c/	4g\	4C/	4g/	4ee\
!	!	!LO:LB:g=original	!	!
=24	=24	=24	=24	=24
!	!LO:TX:b:i:t=fine	!	!	!LO:TX:b:t=8
2A/	2f;>\	4F\	2a/	2ff\
.	.	4FF/	.	.
=:||:	=:||:	=:||:	=:||:	=:||:
*>D	*>D	*>D	*>D	*>D
4r	4r	4r	4a/	4cc\
!	!	!	!	!LO:LB:g=original
=25	=25	=25	=25	=25
!	!LO:SIC:v:s=2.f	!	!	!
2.c/	2.g\	2F\	2a/	2cc\
.	.	4r	8b-/L	8dd\L
.	.	.	8cc/J	8ee\J
!	!	!	!LO:LB:g=original	!
=26	=26	=26	=26	=26
2.F/	2.f\	2.F\	4dd\	4ff\
.	.	.	4cc\	4ee\
.	.	.	4b-\	4dd\
!LO:LB:g=original	!	!	!	!
=27	=27	=27	=27	=27
2.F/	2.f\	4F\	4a/	4cc\
.	.	4BB-/	8b-/L	8dd\L
.	.	.	8a/	8cc\
.	.	4BBn/	8g/	8b-\
.	.	.	8f/J	8a\J
=28	=28	=28	=28	=28
4f\	4a\	4C/	4f/	4a/
4c/	4g\	4C/	4e/	4g/
4r	4r	4r	8ff\L	8aa\L
!	!LO:TX:t=[segno]	!	!	!
!	!LO:TX:a:i:t=Dal Seg	!	!	!
!	!LO:TX:t=P:problem:znak segno na kresce taktowej	!	!	!
.	.	.	8gg\J	8bb-\J
=29	=29	=29	=29	=29
2.A/	2.f\yy	2F\	8aa\L	8ccc\L
.	.	.	8ff\	8aa\
.	.	.	8cc\	8ff\
.	.	.	8ff\	8aa\
.	.	8FF/L	8aa\	8ccc\
.	.	8AA/J	8aa\J	8ccc\J
=30	=30	=30	=30	=30
2.c/	2.g\yy	2C/	8gg\L	8bb-\L
.	.	.	8ee\	8gg\
.	.	.	8cc\	8ee\
.	.	.	8ee\	8gg\
.	.	4E\	8gg\	8bb-\
.	.	.	8gg\J	8bb-\J
!	!	!	!	!LO:LB:g=original
=31	=31	=31	=31	=31
2f\	2a\yy	8F\L	4ff\	8aa\L
.	.	8A\J	.	8ccc\J
.	.	4c\	4a/	4ff\
4c/	4g\yy	4C/	4g/	4ee\
=32	=32	=32	=32	=32
!	!LO:TX:b:i:t=fine	!	!	!LO:TX:b:t=8
4c/	2f;>\yy	4F\	2a/	2ff\
!	!LO:TX:b:i:t=M&colon; Da Capo	!	!	!
4A/	.	4FF/	.	.
==;;	==	==;;	==;;	==;;
*-	*-	*-	*-	*-
!!!system-decoration: [(s1,s2,s3)][(s4,s5)]
!!!ENC: Katarzyna Serwa
!!!END: 2021-06-16
!!!EED: Antoni Szymański
!!!EST: 2021-06-20
